heart-half-full.svg

<svg fill="currentColor" viewBox="0 0 24 24"><path d="M16.5 5c-1.5 0-2.92.91-3.5 2.2v10.54c4.25-3.87 7-6.54 7-9.24 0-2-1.5-3.5-3.5-3.5m0-2C19.58 3 22 5.41 22 8.5c0 3.77-3.4 6.86-8.55 11.53L12 21.35l-1.45-1.32C5.4 15.36 2 12.27 2 8.5 2 5.41 4.42 3 7.5 3c1.74 0 3.41.81 4.5 2.08C13.09 3.81 14.76 3 16.5 3"/></svg>

<svg  viewBox="0 0 24 24" fill="currentColor"><path  d="M16.5,5C15,5 13.58,5.91 13,7.2V17.74C17.25,13.87 20,11.2 20,8.5C20,6.5 18.5,5 16.5,5M16.5,3C19.58,3 22,5.41 22,8.5C22,12.27 18.6,15.36 13.45,20.03L12,21.35L10.55,20.03C5.4,15.36 2,12.27 2,8.5C2,5.41 4.42,3 7.5,3C9.24,3 10.91,3.81 12,5.08C13.09,3.81 14.76,3 16.5,3Z"/></svg>
